images/content/semiregular-convex-uniform/square-prism.svg

<?xml version="1.0" encoding="UTF-8"?>
<svg xmlns="http://www.w3.org/2000/svg" xmlns:xlink="http://www.w3.org/1999/xlink" width="141.74pt" height="152.05pt" viewBox="0 0 141.74 152.05" version="1.2">
<defs>
<clipPath id="clip1">
  <path d="M 0.3125 14 L 52 14 L 52 117 L 0.3125 117 Z M 0.3125 14 "/>
</clipPath>
<clipPath id="clip2">
  <path d="M 0.3125 64 L 135 64 L 135 117 L 0.3125 117 Z M 0.3125 64 "/>
</clipPath>
<clipPath id="clip3">
  <path d="M 0.3125 63 L 135 63 L 135 117 L 0.3125 117 Z M 0.3125 63 "/>
</clipPath>
<clipPath id="clip4">
  <path d="M 102 0 L 141.171875 0 L 141.171875 91 L 102 91 Z M 102 0 "/>
</clipPath>
<clipPath id="clip5">
  <path d="M 0.3125 90 L 135 90 L 135 151 L 0.3125 151 Z M 0.3125 90 "/>
</clipPath>
<clipPath id="clip6">
  <path d="M 0.3125 90 L 135 90 L 135 151.105469 L 0.3125 151.105469 Z M 0.3125 90 "/>
</clipPath>
<clipPath id="clip7">
  <path d="M 91 53 L 141.171875 53 L 141.171875 151.105469 L 91 151.105469 Z M 91 53 "/>
</clipPath>
<clipPath id="clip8">
  <path d="M 28 0 L 141.171875 0 L 141.171875 74 L 28 74 Z M 28 0 "/>
</clipPath>
<clipPath id="clip9">
  <path d="M 0.3125 73 L 92 73 L 92 151 L 0.3125 151 Z M 0.3125 73 "/>
</clipPath>
<clipPath id="clip10">
  <path d="M 0.3125 72 L 92 72 L 92 151.105469 L 0.3125 151.105469 Z M 0.3125 72 "/>
</clipPath>
<clipPath id="clip11">
  <path d="M 0.3125 14 L 29 14 L 29 117 L 0.3125 117 Z M 0.3125 14 "/>
</clipPath>
<clipPath id="clip12">
  <path d="M 28 53 L 141.171875 53 L 141.171875 151.105469 L 28 151.105469 Z M 28 53 "/>
</clipPath>
</defs>
<g id="surface1">
<g clip-path="url(#clip1)" clip-rule="nonzero">
<path style="fill-rule:nonzero;fill:rgb(91.340637%,69.229126%,58.985901%);fill-opacity:1;stroke-width:5;stroke-linecap:round;stroke-linejoin:round;stroke:rgb(13.729858%,12.159729%,12.548828%);stroke-opacity:1;stroke-miterlimit:10;" d="M 51.783346 1375.694632 L 2.49292 351.365669 L 513.910576 874.378761 Z M 51.783346 1375.694632 " transform="matrix(0.0993791,0,0,-0.0993791,0.31085,151.105899)"/>
</g>
<path style="fill-rule:nonzero;fill:rgb(57.939148%,36.775208%,64.450073%);fill-opacity:1;stroke-width:5;stroke-linecap:round;stroke-linejoin:round;stroke:rgb(13.729858%,12.159729%,12.548828%);stroke-opacity:1;stroke-miterlimit:10;" d="M 1027.608013 1517.98438 L 513.910576 874.378761 L 1345.283634 607.998202 Z M 1027.608013 1517.98438 " transform="matrix(0.0993791,0,0,-0.0993791,0.31085,151.105899)"/>
<path style="fill-rule:nonzero;fill:rgb(74.523926%,36.685181%,45.388794%);fill-opacity:1;stroke-width:5;stroke-linecap:round;stroke-linejoin:round;stroke:rgb(13.729858%,12.159729%,12.548828%);stroke-opacity:1;stroke-miterlimit:10;" d="M 1027.608013 1517.98438 L 51.783346 1375.694632 L 513.910576 874.378761 Z M 1027.608013 1517.98438 " transform="matrix(0.0993791,0,0,-0.0993791,0.31085,151.105899)"/>
<g clip-path="url(#clip2)" clip-rule="nonzero">
<path style=" stroke:none;fill-rule:nonzero;fill:rgb(68.736267%,73.138428%,89.555359%);fill-opacity:1;" d="M 134.003906 90.683594 L 51.382812 64.210938 L 0.558594 116.1875 "/>
</g>
<g clip-path="url(#clip3)" clip-rule="nonzero">
<path style="fill:none;stroke-width:5;stroke-linecap:round;stroke-linejoin:round;stroke:rgb(13.729858%,12.159729%,12.548828%);stroke-opacity:1;stroke-miterlimit:10;" d="M 1345.283634 607.998202 L 513.910576 874.378761 L 2.49292 351.365669 " transform="matrix(0.0993791,0,0,-0.0993791,0.31085,151.105899)"/>
</g>
<path style=" stroke:none;fill-rule:nonzero;fill:rgb(8.460999%,9.01947%,14.97345%);fill-opacity:1;" d="M 140.921875 53.558594 L 102.433594 0.25 L 134.003906 90.683594 Z M 140.921875 53.558594 "/>
<g clip-path="url(#clip4)" clip-rule="nonzero">
<path style="fill:none;stroke-width:5;stroke-linecap:round;stroke-linejoin:round;stroke:rgb(13.729858%,12.159729%,12.548828%);stroke-opacity:1;stroke-miterlimit:10;" d="M 1414.895552 981.567751 L 1027.608013 1517.98438 L 1345.283634 607.998202 Z M 1414.895552 981.567751 " transform="matrix(0.0993791,0,0,-0.0993791,0.31085,151.105899)"/>
</g>
<g clip-path="url(#clip5)" clip-rule="nonzero">
<path style=" stroke:none;fill-rule:nonzero;fill:rgb(68.736267%,73.138428%,89.555359%);fill-opacity:1;" d="M 0.558594 116.1875 L 91.449219 150.859375 L 134.003906 90.683594 "/>
</g>
<g clip-path="url(#clip6)" clip-rule="nonzero">
<path style="fill:none;stroke-width:5;stroke-linecap:round;stroke-linejoin:round;stroke:rgb(13.729858%,12.159729%,12.548828%);stroke-opacity:1;stroke-miterlimit:10;" d="M 2.49292 351.365669 L 917.077966 2.48064 L 1345.283634 607.998202 " transform="matrix(0.0993791,0,0,-0.0993791,0.31085,151.105899)"/>
</g>
<path style=" stroke:none;fill-rule:nonzero;fill:rgb(83.628845%,37.313843%,11.26709%);fill-opacity:1;" d="M 140.921875 53.558594 L 134.003906 90.683594 L 91.449219 150.859375 Z M 140.921875 53.558594 "/>
<g clip-path="url(#clip7)" clip-rule="nonzero">
<path style="fill:none;stroke-width:5;stroke-linecap:round;stroke-linejoin:round;stroke:rgb(13.729858%,12.159729%,12.548828%);stroke-opacity:1;stroke-miterlimit:10;" d="M 1414.895552 981.567751 L 1345.283634 607.998202 L 917.077966 2.48064 Z M 1414.895552 981.567751 " transform="matrix(0.0993791,0,0,-0.0993791,0.31085,151.105899)"/>
</g>
<path style=" stroke:none;fill-rule:nonzero;fill:rgb(66.828918%,76.939392%,91.621399%);fill-opacity:1;" d="M 102.433594 0.25 L 140.921875 53.558594 L 28.480469 73.125 "/>
<g clip-path="url(#clip8)" clip-rule="nonzero">
<path style="fill:none;stroke-width:5;stroke-linecap:round;stroke-linejoin:round;stroke:rgb(13.729858%,12.159729%,12.548828%);stroke-opacity:1;stroke-miterlimit:10;" d="M 1027.608013 1517.98438 L 1414.895552 981.567751 L 283.456213 784.68119 " transform="matrix(0.0993791,0,0,-0.0993791,0.31085,151.105899)"/>
</g>
<path style="fill-rule:nonzero;fill:rgb(66.828918%,76.939392%,91.621399%);fill-opacity:1;stroke-width:5;stroke-linecap:round;stroke-linejoin:round;stroke:rgb(13.729858%,12.159729%,12.548828%);stroke-opacity:1;stroke-miterlimit:10;" d="M 283.456213 784.68119 L 51.783346 1375.694632 L 1027.608013 1517.98438 " transform="matrix(0.0993791,0,0,-0.0993791,0.31085,151.105899)"/>
<g clip-path="url(#clip9)" clip-rule="nonzero">
<path style=" stroke:none;fill-rule:nonzero;fill:rgb(39.344788%,9.214783%,30.143738%);fill-opacity:1;" d="M 28.480469 73.125 L 91.449219 150.859375 L 0.558594 116.1875 Z M 28.480469 73.125 "/>
</g>
<g clip-path="url(#clip10)" clip-rule="nonzero">
<path style="fill:none;stroke-width:5;stroke-linecap:round;stroke-linejoin:round;stroke:rgb(13.729858%,12.159729%,12.548828%);stroke-opacity:1;stroke-miterlimit:10;" d="M 283.456213 784.68119 L 917.077966 2.48064 L 2.49292 351.365669 Z M 283.456213 784.68119 " transform="matrix(0.0993791,0,0,-0.0993791,0.31085,151.105899)"/>
</g>
<g clip-path="url(#clip11)" clip-rule="nonzero">
<path style="fill-rule:nonzero;fill:rgb(14.790344%,16.696167%,43.251038%);fill-opacity:1;stroke-width:5;stroke-linecap:round;stroke-linejoin:round;stroke:rgb(13.729858%,12.159729%,12.548828%);stroke-opacity:1;stroke-miterlimit:10;" d="M 51.783346 1375.694632 L 283.456213 784.68119 L 2.49292 351.365669 Z M 51.783346 1375.694632 " transform="matrix(0.0993791,0,0,-0.0993791,0.31085,151.105899)"/>
</g>
<path style=" stroke:none;fill-rule:nonzero;fill:rgb(76.222229%,49.253845%,59.373474%);fill-opacity:1;" d="M 28.480469 73.125 L 140.921875 53.558594 L 91.449219 150.859375 Z M 28.480469 73.125 "/>
<g clip-path="url(#clip12)" clip-rule="nonzero">
<path style="fill:none;stroke-width:5;stroke-linecap:round;stroke-linejoin:round;stroke:rgb(13.729858%,12.159729%,12.548828%);stroke-opacity:1;stroke-miterlimit:10;" d="M 283.456213 784.68119 L 1414.895552 981.567751 L 917.077966 2.48064 Z M 283.456213 784.68119 " transform="matrix(0.0993791,0,0,-0.0993791,0.31085,151.105899)"/>
</g>
</g>
</svg>

<svg xmlns="http://www.w3.org/2000/svg" width="188.987" height="202.733" viewBox="0 0 141.74 152.05" version="1.2"><defs><clipPath id="a"><path d="M.313 14H52v103H.312Zm0 0"/></clipPath><clipPath id="b"><path d="M.313 64H135v53H.312Zm0 0"/></clipPath><clipPath id="c"><path d="M.313 63H135v54H.312Zm0 0"/></clipPath><clipPath id="d"><path d="M102 0h39.172v91H102Zm0 0"/></clipPath><clipPath id="e"><path d="M.313 90H135v61H.312Zm0 0"/></clipPath><clipPath id="f"><path d="M.313 90H135v61.105H.312Zm0 0"/></clipPath><clipPath id="g"><path d="M91 53h50.172v98.105H91Zm0 0"/></clipPath><clipPath id="h"><path d="M28 0h113.172v74H28Zm0 0"/></clipPath><clipPath id="i"><path d="M.313 73H92v78H.312Zm0 0"/></clipPath><clipPath id="j"><path d="M.313 72H92v79.105H.312Zm0 0"/></clipPath><clipPath id="k"><path d="M.313 14H29v103H.312Zm0 0"/></clipPath><clipPath id="l"><path d="M28 53h113.172v98.105H28Zm0 0"/></clipPath></defs><g clip-path="url(#a)"><path style="fill-rule:nonzero;fill:#e9b196;fill-opacity:1;stroke-width:5;stroke-linecap:round;stroke-linejoin:round;stroke:#231f20;stroke-opacity:1;stroke-miterlimit:10" d="M51.783 1375.695 2.493 351.365 513.91 874.38Zm0 0" transform="matrix(.09938 0 0 -.09938 .31 151.106)"/></g><path style="fill-rule:nonzero;fill:#945ea4;fill-opacity:1;stroke-width:5;stroke-linecap:round;stroke-linejoin:round;stroke:#231f20;stroke-opacity:1;stroke-miterlimit:10" d="M1027.608 1517.984 513.911 874.38l831.373-266.38Zm0 0" transform="matrix(.09938 0 0 -.09938 .31 151.106)"/><path style="fill-rule:nonzero;fill:#be5e74;fill-opacity:1;stroke-width:5;stroke-linecap:round;stroke-linejoin:round;stroke:#231f20;stroke-opacity:1;stroke-miterlimit:10" d="m1027.608 1517.984-975.825-142.29L513.911 874.38Zm0 0" transform="matrix(.09938 0 0 -.09938 .31 151.106)"/><g clip-path="url(#b)"><path style="stroke:none;fill-rule:nonzero;fill:#afbbe4;fill-opacity:1" d="M134.004 90.684 51.383 64.21.559 116.188"/></g><g clip-path="url(#c)"><path style="fill:none;stroke-width:5;stroke-linecap:round;stroke-linejoin:round;stroke:#231f20;stroke-opacity:1;stroke-miterlimit:10" d="M1345.284 607.998 513.91 874.378 2.493 351.367" transform="matrix(.09938 0 0 -.09938 .31 151.106)"/></g><path style="stroke:none;fill-rule:nonzero;fill:#161726;fill-opacity:1" d="M140.922 53.559 102.434.25l31.57 90.434Zm0 0"/><g clip-path="url(#d)"><path style="fill:none;stroke-width:5;stroke-linecap:round;stroke-linejoin:round;stroke:#231f20;stroke-opacity:1;stroke-miterlimit:10" d="m1414.896 981.568-387.288 536.416 317.676-909.986Zm0 0" transform="matrix(.09938 0 0 -.09938 .31 151.106)"/></g><g clip-path="url(#e)"><path style="stroke:none;fill-rule:nonzero;fill:#afbbe4;fill-opacity:1" d="m.559 116.188 90.89 34.671 42.555-60.175"/></g><g clip-path="url(#f)"><path style="fill:none;stroke-width:5;stroke-linecap:round;stroke-linejoin:round;stroke:#231f20;stroke-opacity:1;stroke-miterlimit:10" d="M2.493 351.366 917.078 2.48l428.206 605.517" transform="matrix(.09938 0 0 -.09938 .31 151.106)"/></g><path style="stroke:none;fill-rule:nonzero;fill:#d55f1d;fill-opacity:1" d="m140.922 53.559-6.918 37.125-42.555 60.175Zm0 0"/><g clip-path="url(#g)"><path style="fill:none;stroke-width:5;stroke-linecap:round;stroke-linejoin:round;stroke:#231f20;stroke-opacity:1;stroke-miterlimit:10" d="m1414.896 981.568-69.612-373.57L917.078 2.481Zm0 0" transform="matrix(.09938 0 0 -.09938 .31 151.106)"/></g><path style="stroke:none;fill-rule:nonzero;fill:#aac4ea;fill-opacity:1" d="m102.434.25 38.488 53.309L28.48 73.125"/><g clip-path="url(#h)"><path style="fill:none;stroke-width:5;stroke-linecap:round;stroke-linejoin:round;stroke:#231f20;stroke-opacity:1;stroke-miterlimit:10" d="m1027.608 1517.984 387.288-536.416L283.456 784.68" transform="matrix(.09938 0 0 -.09938 .31 151.106)"/></g><path style="fill-rule:nonzero;fill:#aac4ea;fill-opacity:1;stroke-width:5;stroke-linecap:round;stroke-linejoin:round;stroke:#231f20;stroke-opacity:1;stroke-miterlimit:10" d="M283.456 784.681 51.783 1375.695l975.825 142.29" transform="matrix(.09938 0 0 -.09938 .31 151.106)"/><g clip-path="url(#i)"><path style="stroke:none;fill-rule:nonzero;fill:#64174d;fill-opacity:1" d="m28.48 73.125 62.97 77.734L.558 116.187Zm0 0"/></g><g clip-path="url(#j)"><path style="fill:none;stroke-width:5;stroke-linecap:round;stroke-linejoin:round;stroke:#231f20;stroke-opacity:1;stroke-miterlimit:10" d="m283.456 784.681 633.622-782.2L2.493 351.366Zm0 0" transform="matrix(.09938 0 0 -.09938 .31 151.106)"/></g><g clip-path="url(#k)"><path style="fill-rule:nonzero;fill:#262b6e;fill-opacity:1;stroke-width:5;stroke-linecap:round;stroke-linejoin:round;stroke:#231f20;stroke-opacity:1;stroke-miterlimit:10" d="M51.783 1375.695 283.456 784.68 2.493 351.366Zm0 0" transform="matrix(.09938 0 0 -.09938 .31 151.106)"/></g><path style="stroke:none;fill-rule:nonzero;fill:#c27e97;fill-opacity:1" d="m28.48 73.125 112.442-19.566-49.473 97.3Zm0 0"/><g clip-path="url(#l)"><path style="fill:none;stroke-width:5;stroke-linecap:round;stroke-linejoin:round;stroke:#231f20;stroke-opacity:1;stroke-miterlimit:10" d="m283.456 784.681 1131.44 196.887L917.078 2.48Zm0 0" transform="matrix(.09938 0 0 -.09938 .31 151.106)"/></g></svg>
